src/assets/svgs/certificate.svg

<svg xmlns="http://www.w3.org/2000/svg" width="40" height="40" viewBox="0 0 40 40" fill="none">
<path d="M17.4896 9.24756H22.5105C24.0637 9.1899 24.0625 6.96092 22.5105 6.90381H17.4896C15.9364 6.96146 15.9376 9.19045 17.4896 9.24756Z" fill="#BA0800"/>
<path d="M27.5313 16.9453H12.4688C10.9156 17.003 10.9167 19.232 12.4688 19.2891H27.5313C29.0845 19.2314 29.0833 17.0024 27.5313 16.9453Z" fill="#BA0800"/>
<path d="M6.276 13.0967C6.276 13.7439 6.80069 14.2686 7.44788 14.2686H32.552C34.1052 14.2109 34.104 11.9819 32.552 11.9248H7.44788C6.80069 11.9248 6.276 12.4494 6.276 13.0967Z" fill="#BA0800"/>
<path d="M38.8281 1.88281H1.17188C0.524687 1.88281 0 2.4075 0 3.05469V33.1798C0 33.827 0.524687 34.3516 1.17188 34.3516H16.3177V36.9454C16.3177 37.3515 16.528 37.7287 16.8735 37.9423C17.219 38.1559 17.6505 38.1752 18.0137 37.9935L20 37.0003L21.9863 37.9935C22.3495 38.1752 22.781 38.1559 23.1265 37.9423C23.472 37.7288 23.6823 37.3515 23.6823 36.9454V34.3516H38.8281C39.4753 34.3516 40 33.827 40 33.1798V3.05469C40 2.4075 39.4753 1.88281 38.8281 1.88281ZM2.34375 4.22656H7.12914L2.34375 9.01203V4.22656ZM2.34375 32.0079V27.2224L7.12914 32.0079H2.34375ZM21.3385 35.0493L20.5241 34.642C20.1941 34.477 19.8058 34.477 19.4759 34.642L18.6614 35.0493V31.6568C19.5219 31.902 20.478 31.902 21.3385 31.6568V35.0493ZM20 29.4974C18.5698 29.4974 17.4062 28.3338 17.4062 26.9037C17.5366 23.4675 22.4639 23.4684 22.5938 26.9037C22.5938 28.3339 21.4302 29.4974 20 29.4974ZM37.6562 32.0079H32.8709L37.6562 27.2224V32.0079ZM37.6562 23.9079L29.5563 32.0079H23.6823V30.1884C26.5104 27.0965 24.2322 21.932 19.9999 21.9662C15.7533 21.9509 13.4932 27.0734 16.3177 30.1884V32.0079H10.4437L2.34375 23.9079V12.3266L10.4437 4.22656H29.5563L37.6562 12.3266V23.9079ZM37.6562 9.01203L32.8709 4.22656H37.6562V9.01203Z" fill="#BA0800"/>
</svg>

<svg xmlns="http://www.w3.org/2000/svg" width="40" height="40" fill="none"><path d="M17.49 9.248h5.02c1.554-.058 1.552-2.287 0-2.344h-5.02c-1.554.057-1.552 2.286 0 2.344ZM27.531 16.945H12.47c-1.553.058-1.552 2.287 0 2.344H27.53c1.553-.058 1.552-2.287 0-2.344ZM6.276 13.097c0 .647.525 1.172 1.172 1.172h25.104c1.553-.058 1.552-2.287 0-2.344H7.448c-.647 0-1.172.524-1.172 1.172Z" fill="#BA0800"/><path d="M38.828 1.883H1.172C.525 1.883 0 2.408 0 3.055V33.18c0 .647.525 1.172 1.172 1.172h15.146v2.593a1.172 1.172 0 0 0 1.696 1.048L20 37l1.986.993a1.172 1.172 0 0 0 1.696-1.048v-2.593h15.146c.647 0 1.172-.525 1.172-1.172V3.055c0-.647-.525-1.172-1.172-1.172ZM2.344 4.227h4.785L2.344 9.012V4.227Zm0 27.78v-4.785l4.785 4.786H2.344Zm18.994 3.042-.814-.407a1.172 1.172 0 0 0-1.048 0l-.815.407v-3.392c.86.245 1.817.245 2.677 0v3.392ZM20 29.497a2.597 2.597 0 0 1-2.594-2.593c.13-3.436 5.058-3.436 5.188 0A2.597 2.597 0 0 1 20 29.497Zm17.656 2.51h-4.785l4.785-4.785v4.786Zm0-8.1-8.1 8.1h-5.874v-1.819c2.828-3.091.55-8.256-3.682-8.222-4.247-.015-6.507 5.107-3.682 8.222v1.82h-5.874l-8.1-8.1V12.327l8.1-8.1h19.112l8.1 8.1v11.58Zm0-14.895-4.785-4.785h4.785v4.785Z" fill="#BA0800"/></svg>
